X:1
T:Title
%%score 1 { 2 | 3 }
L:1/8
Q:1/4=115
M:3/4
K:A
V:1 treble nm="Grand Piano, Soprano"
V:2 bass nm="Choir Pad, Under the Blood (Mille)"
V:3 bass 
V:1
 [CE]2 [Ec]3 [DB] | [CA]2 [FB]3 [FA] | [DF]2 [CE]3 [CA] | [DB]2 .[CA]4 | [CE]2 [Ec]3 [E=c] | %5
w: By~E.~F.~Miller,~1884 * *|||||
 [Ec]2 [Ae]3 [Ec] | [EA]2 [FA]3 G | [FA]2 .[GB]4 | E2 [Ec]3 [E=c] | [Ec]2 [CA]3 [CG] | %10
w: |||||
 [EA]2 [FB]3 [FA] | [DF]2 .[CE]4 | [Ae]2 [Ae]3 [Ae] | [Ae]2 [Ae] [Ec]3 | [EA]2 [Ec] [Ec]3 | %15
w: |||||
 [EB]2 [EA]4- | [EA]4 z2 |] %17
w: ||
V:2
 A,2 A,3 A, | A,2 A,3 A, | A,2 A,3 A, | A,2 .A,4 | A,2 A,3 A, | A,2[K:treble] C3 A, | C2 C3 C | %7
 C2 .E4 | G,2 A,3 A, | A,2 A,3 A, | A,2 A,3 A, | A,2 .A,4 | C2 C3 C | C2 C E3 | C2 E E3 | D2 C4- | %16
 C4 z2 |] %17
V:3
 A,,2 A,,3 A,, | A,,2 D,3 D, | D,2 A,,3 A,, | A,,2 .A,,4 | z6 | z2 A,4 | A,2 F,3 F, | F,2 .E,4 | %8
 E,2 A,,3 A,, | A,,2 A,,3 A,, | C,2 D,3 D, | D,2 .A,,4 | A,2 A,3 A, | A,2 A, A,3 | A,2 E, E,3 | %15
 E,2 A,,4- | A,,4 z2 |] %17

